X:130
T: Stolen Reel
S: M.Rafferty
Z: B.Black
R: reel
M: 4/4
L: 1/8
K: G
BA |G3 A GEDE |G2 BG BedB |AE E2 A2 Bc |egfa gedB |
G3 A GEDE |G2 Bd efge |dG G2 eGBG | FGAF G2 :|
Bc |dg (3gfg edBA | GEDE G2 Bd |eaab aged | BABd e2 ge |
dg (3gfg agbg | aged e2 ge | dG (3GFG eGBG | FGAF G2 :|
